X:054
U: ~ = !turn!
%%topmargin 3cm
T:Dinny O'Brien
B:Traditional Irish Fiddle Tunes. Randy Miller and Jack Perron.
Z:Transcribed by Ralph Palmer
S:Na Fili
R:Reel
L:1/8
M:C|
K:D
fd{/e}dc dcAB | =c2 {/d}cB cAGE | D2 AD EDAD | EGAB =cdeg |
fd{/e}dc dcAB | =c2 {/d}cB cAGE | D2 AD EGAB | ((3=cBA) GE {/F}ED D2 ::
fd{/e}dc defg | ad (3.d.d.d ad fd | e=ccB cdef | g=c (3.c.c.c gcag |
fd{/e}dc dcAB | =c2 cB cAGE | D2 AD EGAB | ((3=cBA) GE ED D2 :|]
